X:1
T:Title
%%score ( 1 2 3 ) { 4 | ( 5 6 ) }
L:1/8
Q:1/4=105
M:4/4
K:F
V:1 treble nm="Drawbar Organ, Staff 1"
V:2 treble 
V:3 treble 
V:4 bass nm="Church Organ, Staff 2"
V:5 bass 
V:6 bass 
V:1
 [FA]2 G2 F2 C2 | D2 [DF]2 [EG]2 [DFA]2 | z2 A2 z4 | E2 [EG]2 [FA]2 [GB]2 | c2 A2 [DFG]2 [Ed]2 | %5
w: By~FrancesJane~(Fanny)~Crosby,~1885 * * *|||||
 c2 A2 C2- [CDF]2 | C2- [CEG]2 A2 [Ac]2 | e3 d [Ec]4 | B,2- [B,-^CE]2 [B,DF]2 B2 | A2 G2 F2 E2 | %10
w: |||||
 D2 [^CE]2 [DF]2 [Fd]2 | c2 B2 A2 G2 | F2 [EG]2 [FA]2 [CE]2 | B,2- [B,^CE]2 [B,DF]2 [DFG]2 | %14
w: ||||
 [CFA]2 G2 F2 [B,C]2 | C2- [B,C-G]2 [A,CF]4- | [A,CF]4 z4 |] %17
w: |||
V:2
 [A,-C]6 A,2- | A,8 | [DGB]2 D2- [B,DG]2 [B,D]2 | [B,C]4 C4 | [CF]4 z4 | F4 [EG]2 z2 | E2 z2 D4 | %7
 A2 G4 z2 | D2 z2 z2 D2- | D4 ^C4 | x8 | F4 E4 | D6 z2 | D2 z2 z4 | z2 C4 z2 | [A,F]2 z2 z4 | x8 |] %17
V:3
 x8 | x8 | B,4 z4 | x8 | x8 | x8 | x8 | x8 | x8 | x8 | x8 | x8 | x8 | x8 | x8 | x8 | x8 |] %17
V:4
 F,8- | F,8 | G,8 | G,4 C2 B,2 | A,4 B,4 | A,2 C2 B,2 A,2 | G,4 [^F,C]4 | [G,=B,]4 [G,C]4 | %8
 G,6 F,2 | E,4 z4 | F,4 B,2 A,2 | G,4 C2 B,2 | A,6 z2 | F,8- | F,2 B,2 A,2 G,2 | F,,8 | z8 |] %17
V:5
 [F,,C,]8- | [F,,C,]8 | [F,,D,]8 | [F,,C,]4 C,4 | C,8- | C,8 | C,4 A,,4 | G,,4 C,2 C,,2 | G,,8 | %9
 A,,2 z2 A,2 G,2 | B,,8 | C,2 C,6 | D,4 z2 G,2 | B,,6 =B,,2 | C,8- | C,8 | z8 |] %17
V:6
 x8 | x8 | x8 | x8 | x8 | x8 | x8 | x8 | x8 | z2 A,,4 z2 | x8 | x8 | z4 A,,4 | x8 | x8 | x8 | x8 |] %17

